X: 11098
T: TROOPER'S POLKA
C: Bob McQuillen 5 Nov 99
B: Bob's Note Book 11 #98
R: polka, reel
Z: 2019 John Chambers <jc:trillian.mit.edu>
M: C
L: 1/8
K: G
GE \
| D2GA BAG2 | G2FG AGF2 | D2FA cAFA | GABc d4  |\
| D2GA BAG2 | G2FG AGF2 | D2FA cAFG | A2G2 G2 :|
|: Bc \
| d2Bd cBAB | c2A2 AGFG | AGFE DFAB | c2B2 BAGB |\
| d2Bd cBAB | c2AB AGFE | FEDE FGAc | B2G2 G2  :|
%%begintext align
%% Down in Norristown,
%% PA., Tim Brennan (fiddler John's banjo-playing
%% brother - and BOY can he play!) has a real cute
%% doggie buddy named trooper who likes my hat.
%%endtext

%%sep 1 1 500

%%sep 1 1 500

